;FLAVOR:Marlin
;TIME:14406
;Filament used: 17.1061m
;Layer height: 0.25
;MINX:61.081
;MINY:82.8
;MINZ:0.2
;MAXX:187.716
;MAXY:143.291
;MAXZ:81.95
;Generated with Cura_SteamEngine 4.10.0
M82 ;absolute extrusion mode
G21 ; set units to millimeters
G90 ; use absolute positioning
M82 ; absolute extrusion mode
M104 S200 ; set extruder temp
M140 S60 ; set bed temp
M190 S60 ; wait for bed temp
M109 S200 ; wait for extruder temp
G28 W ; home all without mesh bed level
G80 ; mesh bed leveling
G92 E0.0 ; reset extruder distance position
G1 Y-3.0 F1000.0 ; go outside print area
G1 X60.0 E9.0 F1000.0 ; intro line
G1 X100.0 E21.5 F1000.0 ; intro line
G92 E0.0 ; reset extruder distance position
G92 E0
G92 E0
G1 F2100 E-0.8
;LAYER_COUNT:328
;LAYER:0
M107
G0 F3600 X71.966 Y83.546 Z0.2
;TYPE:SKIRT
G1 F2100 E0
G1 F1800 X72.379 Y83.255 E0.0168
G1 X72.833 Y83.033 E0.03361
G1 X73.317 Y82.885 E0.05045
G1 X73.919 Y82.81 E0.07062
G1 X74.33 Y82.8 E0.0843
G1 X93.339 Y82.8 E0.71654
G1 X94.042 Y82.81 E0.73992
G1 X94.545 Y82.857 E0.75673
G1 X94.932 Y82.95 E0.76996
G1 X95.936 Y83.258 E0.80489
G1 X96.621 Y83.478 E0.82882
G1 X99.29 Y84.255 E0.92128
G1 X101.944 Y84.946 E1.01249
G1 X104.587 Y85.555 E1.1027
G1 X107.323 Y86.107 E1.19554
G1 X109.963 Y86.558 E1.28462
G1 X112.716 Y86.951 E1.37711
G1 X115.411 Y87.258 E1.46733
G1 X118.12 Y87.488 E1.55775
G1 X120.87 Y87.645 E1.64937
G1 X123.622 Y87.724 E1.74094
G1 X126.34 Y87.724 E1.83134
G1 X129.091 Y87.647 E1.92287
G1 X131.807 Y87.494 E2.01335
G1 X134.55 Y87.262 E2.10491
G1 X137.286 Y86.952 E2.19649
G1 X139.975 Y86.57 E2.28682
G1 X142.666 Y86.109 E2.37763
G1 X145.334 Y85.576 E2.46812
G1 X148.039 Y84.954 E2.56044
G1 X150.689 Y84.264 E2.65152
G1 X153.321 Y83.5 E2.74267
G1 X155.048 Y82.957 E2.80288
G1 X155.51 Y82.848 E2.81867
G1 X156.233 Y82.801 E2.84277
G1 X175.334 Y82.8 E3.47807
G1 X176.032 Y82.809 E3.50129
G1 X176.536 Y82.856 E3.51812
G1 X177.026 Y82.981 E3.53494
G1 X177.49 Y83.182 E3.55176
G1 X177.916 Y83.453 E3.56856
G1 X178.295 Y83.788 E3.58538
G1 X178.616 Y84.179 E3.60221
G1 X178.871 Y84.615 E3.619
G1 X179.055 Y85.086 E3.63582
G1 X179.179 Y85.735 E3.6578
G1 X179.254 Y86.607 E3.68691
G1 X179.533 Y89.368 E3.77921
G1 X179.885 Y92.094 E3.87063
G1 X180.315 Y94.818 E3.96235
G1 X180.816 Y97.488 E4.05271
G1 X181.395 Y100.159 E4.14361
G1 X182.042 Y102.788 E4.23366
G1 X182.781 Y105.456 E4.32574
G1 X183.588 Y108.081 E4.41708
G1 X184.161 Y109.799 E4.47731
G1 X184.519 Y110.847 E4.51415
G1 X184.706 Y111.45 E4.53514
G1 X184.818 Y111.943 E4.55196
G1 X184.85 Y112.448 E4.56879
G1 X184.802 Y112.951 E4.58559
G1 X184.71 Y113.333 E4.59866
G1 X184.445 Y114.196 E4.62869
G1 X184.399 Y114.33 E4.6334
G1 X183.556 Y116.924 E4.72412
G1 X182.781 Y119.561 E4.81554
G1 X182.089 Y122.189 E4.90592
G1 X181.463 Y124.87 E4.99749
G1 X180.913 Y127.559 E5.08878
G1 X180.446 Y130.251 E5.17965
G1 X180.106 Y132.638 E5.25985
G1 X180.011 Y133.254 E5.28058
G1 X179.909 Y133.7 E5.2958
G1 X179.638 Y134.586 E5.32661
G1 X178.636 Y137.661 E5.43418
G1 X178.412 Y138.319 E5.4573
G1 X178.212 Y138.783 E5.4741
G1 X177.941 Y139.21 E5.49092
G1 X177.607 Y139.589 E5.50773
G1 X177.31 Y139.843 E5.52072
G1 X176.636 Y140.351 E5.5488
G1 X173.956 Y142.302 E5.65905
G1 X173.404 Y142.691 E5.68151
G1 X172.969 Y142.948 E5.69832
G1 X172.499 Y143.134 E5.71513
G1 X172.006 Y143.244 E5.73193
G1 X171.619 Y143.274 E5.74484
G1 X170.675 Y143.291 E5.77624
G1 X167.475 Y143.291 E5.88267
G1 X166.765 Y143.28 E5.90629
G1 X166.32 Y143.241 E5.92115
G1 X165.152 Y143.058 E5.96047
G1 X164.621 Y142.967 E5.97839
G1 X161.936 Y142.585 E6.06859
G1 X159.196 Y142.274 E6.16031
G1 X156.452 Y142.042 E6.2519
G1 X153.738 Y141.889 E6.34231
G1 X150.987 Y141.812 E6.43385
G1 X148.27 Y141.812 E6.52421
G1 X145.517 Y141.891 E6.61582
G1 X142.765 Y142.048 E6.7075
G1 X140.075 Y142.277 E6.79729
G1 X136.668 Y142.677 E6.91139
G1 X136.017 Y142.742 E6.93315
G1 X135.006 Y142.76 E6.96678
G1 X132.016 Y142.76 E7.06623
G1 X130.658 Y142.741 E7.1114
G1 X127.619 Y142.746 E7.21248
G1 X126.815 Y142.76 E7.23922
G1 X123.791 Y142.76 E7.3398
G1 X122.532 Y142.742 E7.38168
G1 X119.384 Y142.748 E7.48638
G1 X118.7 Y142.76 E7.50913
G1 X115.707 Y142.76 E7.60868
G1 X115.007 Y142.75 E7.63197
G1 X114.511 Y142.704 E7.64853
G1 X111.703 Y142.221 E7.7433
G1 X108.988 Y141.834 E7.83451
G1 X106.287 Y141.527 E7.92493
G1 X103.573 Y141.294 E8.01553
G1 X100.826 Y141.138 E8.10704
G1 X98.074 Y141.059 E8.19861
G1 X95.356 Y141.059 E8.28901
G1 X92.604 Y141.136 E8.38058
G1 X89.888 Y141.289 E8.47106
G1 X87.145 Y141.521 E8.56262
G1 X84.41 Y141.831 E8.65416
G1 X81.721 Y142.213 E8.7445
G1 X79.035 Y142.673 E8.83514
G1 X77.774 Y142.929 E8.87793
G1 X76.448 Y143.185 E8.92285
G1 X75.897 Y143.243 E8.94128
G1 X74.984 Y143.259 E8.97165
G1 X71.732 Y143.259 E9.07981
G1 X71.037 Y143.249 E9.10293
G1 X70.534 Y143.201 E9.11974
G1 X70.044 Y143.076 E9.13655
G1 X69.58 Y142.874 E9.15339
G1 X69.244 Y142.668 E9.1665
G1 X68.474 Y142.127 E9.19779
G1 X65.888 Y140.243 E9.30421
G1 X65.336 Y139.83 E9.32714
G1 X64.956 Y139.496 E9.34397
G1 X64.634 Y139.107 E9.36076
G1 X64.377 Y138.671 E9.3776
G1 X64.227 Y138.31 E9.3906
G1 X63.931 Y137.449 E9.42088
G1 X62.939 Y134.4 E9.52752
G1 X62.726 Y133.709 E9.55157
G1 X62.616 Y133.215 E9.56841
G1 X62.584 Y132.711 E9.5852
G1 X62.653 Y132.105 E9.60549
G1 X62.84 Y131.221 E9.63554
G1 X63.076 Y130.18 E9.67104
G1 X63.607 Y127.481 E9.76253
G1 X64.057 Y124.795 E9.85312
G1 X64.434 Y122.078 E9.94435
G1 X64.737 Y119.325 E10.03647
G1 X64.954 Y116.66 E10.1254
G1 X65.102 Y113.857 E10.21876
G1 X65.148 Y112.678 E10.258
G1 X65.208 Y112.175 E10.27485
G1 X65.287 Y111.864 E10.28552
G1 X65.551 Y111.009 E10.31528
G1 X65.888 Y110.02 E10.35003
G1 X66.731 Y107.427 E10.44072
G1 X67.513 Y104.771 E10.53281
G1 X68.201 Y102.161 E10.62258
G1 X68.833 Y99.464 E10.71472
G1 X69.382 Y96.783 E10.80574
G1 X69.849 Y94.1 E10.89632
G1 X70.251 Y91.343 E10.98898
G1 X70.562 Y88.686 E11.07796
G1 X70.821 Y85.729 E11.17669
G1 X70.905 Y85.231 E11.19348
G1 X71.066 Y84.752 E11.21029
G1 X71.301 Y84.304 E11.22712
G1 X71.603 Y83.899 E11.24392
G1 X71.966 Y83.546 E11.26076
G0 F3600 X73.29 Y132.52
G1 F1800 X73.7 Y132.528 E11.2744
G1 X73.756 Y132.735 E11.28153
G1 X73.688 Y132.944 E11.28884
G1 X73.531 Y133.059 E11.29532
G1 X73.349 Y133.059 E11.30137
G1 X73.192 Y132.944 E11.30784
G1 X73.134 Y132.768 E11.31401
G1 X73.192 Y132.592 E11.32017
G1 X73.29 Y132.52 E11.32421
G0 F3600 X73.163 Y132.118
G1 F1800 X74.039 Y132.134 E11.35335
G1 X74.172 Y132.749 E11.37428
G1 X74.028 Y133.192 E11.38977
G1 X73.661 Y133.459 E11.40487
G1 X73.219 Y133.459 E11.41957
G1 X72.852 Y133.192 E11.43467
G1 X72.714 Y132.768 E11.4495
G1 X72.852 Y132.344 E11.46433
G1 X73.163 Y132.118 E11.47711
G0 F3600 X73.037 Y131.715
G1 F1800 X74.38 Y131.741 E11.52179
G1 X74.39 Y131.859 E11.52573
G1 X74.528 Y132.55 E11.54917
G1 X74.589 Y132.761 E11.55647
G1 X74.369 Y133.438 E11.58015
G1 X73.791 Y133.859 E11.60393
G1 X73.089 Y133.859 E11.62728
G1 X72.511 Y133.438 E11.65106
G1 X72.293 Y132.768 E11.6745
G1 X72.511 Y132.098 E11.69793
G1 X73.037 Y131.715 E11.71957
G0 F3600 X72.91 Y131.313
G1 F1800 X74.747 Y131.348 E11.78068
G1 X74.799 Y131.892 E11.79886
G1 X75.008 Y132.766 E11.82875
G1 X74.709 Y133.685 E11.86089
G1 X73.921 Y134.259 E11.89332
G1 X72.959 Y134.259 E11.92531
G1 X72.171 Y133.685 E11.95774
G1 X71.872 Y132.768 E11.98982
G1 X72.171 Y131.851 E12.0219
G1 X72.91 Y131.313 E12.0523
G0 F3600 X72.783 Y130.91
G1 F1800 X75.14 Y130.955 E12.13071
G1 X75.137 Y131.268 E12.14112
G1 X75.21 Y131.921 E12.16297
G1 X75.396 Y132.67 E12.18864
G1 X75.428 Y132.768 E12.19207
G1 X75.048 Y133.933 E12.23283
G1 X74.051 Y134.659 E12.27385
G1 X72.829 Y134.659 E12.31449
G1 X71.832 Y133.933 E12.35551
G1 X71.452 Y132.768 E12.39627
G1 X71.832 Y131.603 E12.43703
G1 X72.783 Y130.91 E12.47616
G0 F3600 X72.656 Y130.508
G1 F1800 X75.556 Y130.563 E12.57264
G1 X75.54 Y130.688 E12.57683
G1 X75.54 Y131.32 E12.59785
G1 X75.621 Y131.947 E12.61888
G1 X75.776 Y132.546 E12.63945
G1 X75.849 Y132.769 E12.64726
G1 X75.39 Y134.179 E12.69658
G1 X74.182 Y135.059 E12.74629
G1 X72.698 Y135.059 E12.79564
G1 X71.49 Y134.179 E12.84535
G1 X71.031 Y132.767 E12.89474
G1 X71.49 Y131.357 E12.94405
G1 X72.656 Y130.508 E12.99203
G0 F3600 X72.53 Y130.105
G1 F1800 X76.006 Y130.171 E13.10766
G1 X75.936 Y130.762 E13.12745
G1 X75.945 Y131.368 E13.14761
G1 X76.034 Y131.968 E13.16779
G1 X76.269 Y132.768 E13.19552
G1 X75.73 Y134.426 E13.25351
G1 X74.311 Y135.459 E13.31188
G1 X72.569 Y135.459 E13.36982
G1 X71.15 Y134.426 E13.4282
G1 X70.611 Y132.768 E13.48619
G1 X71.15 Y131.11 E13.54417
G1 X72.53 Y130.105 E13.60095
G0 F3600 X72.402 Y129.703
G1 F1800 X76.322 Y129.777 E13.73135
G1 X76.43 Y130.123 E13.74341
G1 X76.396 Y130.258 E13.74804
G1 X76.333 Y130.834 E13.76731
G1 X76.351 Y131.413 E13.78658
G1 X76.448 Y131.984 E13.80584
G1 X76.69 Y132.767 E13.8331
G1 X76.069 Y134.675 E13.89984
G1 X74.443 Y135.859 E13.96674
G1 X72.437 Y135.859 E14.03346
G1 X70.811 Y134.675 E14.10036
G1 X70.19 Y132.768 E14.16706
G1 X70.811 Y130.861 E14.23377
G1 X72.402 Y129.703 E14.29922
G0 F3600 X72.276 Y129.3
G1 F1800 X76.631 Y129.382 E14.44409
G1 X76.846 Y130.109 E14.46931
G1 X76.785 Y130.355 E14.47774
G1 X76.731 Y130.903 E14.49605
G1 X76.758 Y131.454 E14.5144
G1 X76.917 Y132.174 E14.53892
G1 X77.111 Y132.768 E14.55971
G1 X76.411 Y134.92 E14.63497
G1 X74.572 Y136.259 E14.71064
G1 X72.308 Y136.259 E14.78594
G1 X70.469 Y134.92 E14.8616
G1 X69.769 Y132.768 E14.93686
G1 X70.469 Y130.616 E15.01213
G1 X72.276 Y129.3 E15.08648
G0 F3600 X72.15 Y128.898
G1 F1800 X76.97 Y128.989 E15.24682
G1 X77.096 Y129.587 E15.26715
G1 X77.261 Y130.093 E15.28485
G1 X77.174 Y130.45 E15.29707
G1 X77.13 Y130.97 E15.31443
G1 X77.166 Y131.49 E15.33177
G1 X77.297 Y132.05 E15.3509
G1 X77.531 Y132.768 E15.37601
G1 X76.75 Y135.168 E15.45996
G1 X74.702 Y136.659 E15.54421
G1 X72.178 Y136.659 E15.62816
G1 X70.13 Y135.168 E15.71242
G1 X69.349 Y132.768 E15.79636
G1 X70.13 Y130.368 E15.88031
G1 X72.15 Y128.898 E15.9634
G0 F3600 X72.023 Y128.495
G1 F1800 X77.34 Y128.596 E16.14028
G1 X77.344 Y128.836 E16.14826
G1 X77.477 Y129.463 E16.16958
G1 X77.676 Y130.075 E16.19098
G1 X77.564 Y130.544 E16.20702
G1 X77.53 Y131.032 E16.22329
G1 X77.576 Y131.52 E16.23959
G1 X77.678 Y131.926 E16.25352
G1 X77.952 Y132.767 E16.28294
G1 X77.09 Y135.416 E16.37559
G1 X74.833 Y137.059 E16.46844
G1 X72.047 Y137.059 E16.5611
G1 X69.79 Y135.416 E16.65396
G1 X68.928 Y132.768 E16.74658
G1 X69.79 Y130.12 E16.8392
G1 X72.023 Y128.495 E16.93105
G0 F3600 X71.894 Y128.093
G1 F1800 X77.531 Y128.2 E17.11857
G1 X77.763 Y128.184 E17.12631
G1 X77.731 Y128.435 E17.13473
G1 X77.754 Y128.89 E17.14988
G1 X77.857 Y129.339 E17.1652
G1 X78.097 Y130.074 E17.19092
G1 X77.955 Y130.636 E17.2102
G1 X77.932 Y131.091 E17.22535
G1 X78.058 Y131.802 E17.24936
G1 X78.373 Y132.768 E17.28316
G1 X77.431 Y135.662 E17.38438
G1 X74.963 Y137.459 E17.48592
G1 X71.917 Y137.459 E17.58724
G1 X69.449 Y135.662 E17.68878
G1 X68.507 Y132.768 E17.79
G1 X69.449 Y129.874 E17.89123
G1 X71.894 Y128.093 E17.99183
G0 F3600 X71.767 Y127.691
G1 F1800 X77.538 Y127.8 E18.18381
G1 X77.956 Y127.768 E18.19776
G1 X78.304 Y127.672 E18.20976
G1 X78.172 Y128.1 E18.22466
G1 X78.129 Y128.517 E18.2386
G1 X78.166 Y128.935 E18.25256
G1 X78.237 Y129.215 E18.26217
G1 X78.517 Y130.073 E18.29219
G1 X78.347 Y130.725 E18.3146
G1 X78.335 Y131.143 E18.32851
G1 X78.438 Y131.679 E18.34666
G1 X78.793 Y132.768 E18.38476
G1 X77.77 Y135.91 E18.49466
G1 X75.094 Y137.859 E18.60477
G1 X71.786 Y137.859 E18.71479
G1 X69.11 Y135.91 E18.8249
G1 X68.087 Y132.768 E18.9348
G1 X69.11 Y129.626 E19.04471
G1 X71.767 Y127.691 E19.15403
G0 F3600 X71.642 Y127.288
G1 F1800 X77.546 Y127.4 E19.35043
G1 X77.924 Y127.367 E19.36305
G1 X78.286 Y127.256 E19.37565
G1 X78.702 Y127.013 E19.39167
G1 X78.845 Y127.013 E19.39643
G1 X78.959 Y127.129 E19.40184
G1 X78.663 Y127.851 E19.42779
G1 X78.557 Y128.215 E19.4404
G1 X78.53 Y128.593 E19.453
G1 X78.618 Y129.091 E19.46982
G1 X78.938 Y130.073 E19.50418
G1 X78.74 Y130.81 E19.52956
G1 X78.74 Y131.189 E19.54216
G1 X78.819 Y131.555 E19.55462
G1 X79.214 Y132.767 E19.59701
G1 X78.111 Y136.156 E19.71555
G1 X75.223 Y138.259 E19.83438
G1 X71.657 Y138.259 E19.95298
G1 X68.769 Y136.156 E20.07181
G1 X67.666 Y132.768 E20.19031
G1 X68.769 Y129.38 E20.30882
G1 X71.642 Y127.288 E20.42702
G0 F3600 X71.515 Y126.886
G1 F1800 X77.554 Y127 E20.62792
G1 X77.886 Y126.966 E20.63902
G1 X78.375 Y126.752 E20.65677
G1 X78.576 Y126.613 E20.6649
G1 X78.975 Y126.613 E20.67817
G1 X79.286 Y126.839 E20.69096
G1 X79.385 Y127.143 E20.70159
G1 X79.033 Y128.002 E20.73247
G1 X78.945 Y128.324 E20.74357
G1 X78.935 Y128.658 E20.75468
G1 X78.998 Y128.967 E20.76517
G1 X79.359 Y130.073 E20.80387
G1 X79.199 Y130.563 E20.82101
G1 X79.134 Y130.891 E20.83213
G1 X79.149 Y131.225 E20.84325
G1 X79.199 Y131.431 E20.8503
G1 X79.635 Y132.768 E20.89708
G1 X78.452 Y136.403 E21.02422
G1 X75.353 Y138.659 E21.15171
G1 X71.527 Y138.659 E21.27897
G1 X68.428 Y136.403 E21.40646
G1 X67.245 Y132.768 E21.5336
G1 X68.428 Y129.133 E21.66074
G1 X71.515 Y126.886 E21.78774
G0 F3600 X71.388 Y126.483
G1 F1800 X77.561 Y126.6 E21.99309
G1 X77.841 Y126.565 E22.00247
G1 X78.148 Y126.423 E22.01372
G1 X78.452 Y126.213 E22.02601
G1 X79.106 Y126.213 E22.04776
G1 X79.625 Y126.591 E22.06912
G1 X79.811 Y127.161 E22.08906
G1 X79.404 Y128.154 E22.12476
G1 X79.335 Y128.428 E22.13415
G1 X79.378 Y128.843 E22.14803
G1 X79.779 Y130.073 E22.19106
G1 X79.579 Y130.687 E22.21254
G1 X79.531 Y130.965 E22.22192
G1 X79.579 Y131.307 E22.23341
G1 X80.055 Y132.768 E22.28451
G1 X78.791 Y136.651 E22.42033
G1 X75.484 Y139.059 E22.55639
G1 X71.396 Y139.059 E22.69236
G1 X68.089 Y136.651 E22.82842
G1 X66.825 Y132.768 E22.96424
G1 X68.089 Y128.885 E23.10006
G1 X71.388 Y126.483 E23.23579
G0 F3600 X71.261 Y126.081
G1 F1800 X77.569 Y126.2 E23.44563
G1 X77.784 Y126.164 E23.45288
G1 X78.328 Y125.813 E23.47441
G1 X79.236 Y125.813 E23.50461
G1 X79.965 Y126.344 E23.53461
G1 X80.236 Y127.177 E23.56375
G1 X79.774 Y128.306 E23.60432
G1 X79.729 Y128.519 E23.61156
G1 X79.759 Y128.719 E23.61829
G1 X80.2 Y130.073 E23.66565
G1 X79.96 Y130.811 E23.69146
G1 X79.931 Y131.027 E23.69871
G1 X79.96 Y131.183 E23.70399
G1 X80.476 Y132.767 E23.7594
G1 X79.131 Y136.898 E23.90389
G1 X75.614 Y139.459 E24.0486
G1 X71.266 Y139.459 E24.19321
G1 X67.749 Y136.898 E24.33791
G1 X66.405 Y132.768 E24.48237
G1 X67.749 Y128.638 E24.62682
G1 X71.261 Y126.081 E24.77131
G0 F3600 X71.135 Y125.678
G1 F1800 X77.576 Y125.8 E24.98558
G1 X77.694 Y125.765 E24.98967
G1 X78.204 Y125.413 E25.01028
G1 X79.365 Y125.413 E25.0489
G1 X80.306 Y126.098 E25.08761
G1 X80.662 Y127.192 E25.12588
G1 X80.144 Y128.457 E25.17134
G1 X80.139 Y128.595 E25.17593
G1 X80.621 Y130.073 E25.22764
G1 X80.34 Y130.935 E25.2578
G1 X80.34 Y131.059 E25.26192
G1 X80.897 Y132.768 E25.3217
G1 X79.472 Y137.144 E25.47477
G1 X75.743 Y139.859 E25.62819
G1 X71.137 Y139.859 E25.78139
G1 X67.408 Y137.144 E25.9348
G1 X65.983 Y132.768 E26.08787
G1 X67.408 Y128.392 E26.24094
G1 X71.135 Y125.678 E26.39429
G0 F3600 X71.233 Y114.734
G1 F1800 X69.967 Y114.734 E26.43639
G1 X68.939 Y113.986 E26.47868
G1 X68.547 Y112.782 E26.52079
G1 X68.939 Y111.578 E26.56291
G1 X69.967 Y110.83 E26.60519
G1 X71.233 Y110.83 E26.6473
G1 X72.261 Y111.578 E26.68958
G1 X72.653 Y112.782 E26.7317
G1 X72.261 Y113.986 E26.77381
G1 X71.233 Y114.734 E26.8161
G0 F3600 X71.104 Y114.334
G1 F1800 X70.096 Y114.334 E26.84962
G1 X69.28 Y113.74 E26.88319
G1 X68.969 Y112.782 E26.91669
G1 X69.28 Y111.824 E26.95019
G1 X70.096 Y111.23 E26.98376
G1 X71.104 Y111.23 E27.01729
G1 X71.92 Y111.824 E27.05086
G1 X72.231 Y112.782 E27.08436
G1 X71.92 Y113.74 E27.11786
G1 X71.104 Y114.334 E27.15143
G0 F3600 X70.974 Y113.934
G1 F1800 X70.226 Y113.934 E27.17631
G1 X69.62 Y113.492 E27.20125
G1 X69.389 Y112.782 E27.22609
G1 X69.62 Y112.072 E27.25092
G1 X70.226 Y111.63 E27.27587
G1 X70.974 Y111.63 E27.30075
G1 X71.58 Y112.072 E27.32569
G1 X71.811 Y112.782 E27.35053
G1 X71.58 Y113.492 E27.37536
G1 X70.974 Y113.934 E27.40031
G0 F3600 X70.843 Y113.534
G1 F1800 X70.357 Y113.534 E27.41647
G1 X69.959 Y113.245 E27.43283
G1 X69.809 Y112.782 E27.44902
G1 X69.959 Y112.319 E27.46521
G1 X70.357 Y112.03 E27.48157
